public/svg/twitter.svg

<svg width="42" height="43" viewBox="0 0 42 43" fill="none" xmlns="http://www.w3.org/2000/svg">
<path d="M33.1392 14.5C32.2088 14.9375 31.2058 15.225 30.1667 15.3625C31.23 14.7 32.0517 13.65 32.4383 12.3875C31.4354 13.0125 30.3238 13.45 29.1517 13.7C28.1971 12.625 26.8558 12 25.3333 12C22.4938 12 20.1738 14.4 20.1738 17.3625C20.1738 17.7875 20.2221 18.2 20.3067 18.5875C16.005 18.3625 12.1746 16.225 9.62501 12.9875C9.17792 13.775 8.92417 14.7 8.92417 15.675C8.92417 17.5375 9.83042 19.1875 11.2321 20.125C10.3742 20.125 9.57667 19.875 8.87584 19.5V19.5375C8.87584 22.1375 10.6642 24.3125 13.0325 24.8C12.2723 25.0162 11.4738 25.0461 10.7004 24.8875C11.0286 25.9531 11.6714 26.8855 12.5383 27.5537C13.4053 28.2218 14.4528 28.5921 15.5338 28.6125C13.7015 30.1131 11.4303 30.9242 9.09334 30.9125C8.68251 30.9125 8.27167 30.8875 7.86084 30.8375C10.1567 32.3625 12.8875 33.25 15.8117 33.25C25.3333 33.25 30.5654 25.075 30.5654 17.9875C30.5654 17.75 30.5654 17.525 30.5533 17.2875C31.5683 16.5375 32.4383 15.5875 33.1392 14.5Z" fill="#EBDA9C"/>
<path d="M41 21.5C41 32.8442 32.0236 42 21 42C9.97636 42 1 32.8442 1 21.5C1 10.1559 9.97636 1 21 1C32.0236 1 41 10.1559 41 21.5Z" stroke="#EBDA9C" stroke-width="2"/>
</svg>

<svg width="42" height="43" fill="none" xmlns="http://www.w3.org/2000/svg"><path d="M33.14 14.5c-.931.438-1.934.725-2.973.863a5.346 5.346 0 0 0 2.271-2.976 10.234 10.234 0 0 1-3.286 1.313c-.955-1.075-2.296-1.7-3.819-1.7-2.84 0-5.16 2.4-5.16 5.363 0 .425.05.837.134 1.224-4.302-.224-8.132-2.362-10.682-5.6a5.446 5.446 0 0 0-.7 2.688c0 1.863.905 3.512 2.307 4.45-.858 0-1.655-.25-2.356-.625v.038c0 2.6 1.788 4.774 4.157 5.262a4.911 4.911 0 0 1-2.333.087 5.35 5.35 0 0 0 1.838 2.667 5.061 5.061 0 0 0 2.996 1.059 10.08 10.08 0 0 1-6.44 2.3c-.411 0-.822-.026-1.233-.076a14.322 14.322 0 0 0 7.95 2.413c9.522 0 14.754-8.175 14.754-15.262 0-.238 0-.463-.012-.7 1.015-.75 1.885-1.7 2.586-2.788Z" fill="#EBDA9C" fill-opacity=".67"/><path d="M41 21.5C41 32.844 32.024 42 21 42S1 32.844 1 21.5 9.976 1 21 1s20 9.156 20 20.5Z" stroke="#EBDA9C" stroke-opacity=".67" stroke-width="2"/></svg>
